packages/match-logos/mono/svg/trulia.svg

<svg fill="none" height="30" viewBox="0 0 114 30" width="114" xmlns="http://www.w3.org/2000/svg"><path d="m87.525 0c1.575 0 2.925 1.35 2.925 2.925s-1.35 2.925-2.925 2.925-2.925-1.35-2.925-2.925 1.275-2.925 2.925-2.925zm-59.1 22.8v-10.35h5.325v-4.2h-5.325v-6.6l-5.1 1.275v5.325h-3.825v4.2h3.825v10.8c0 4.05 2.1 6.525 6.375 6.525 1.5 0 2.925-.225 4.35-.525v-4.275c-1.425.15-2.25.225-3.3.225-1.575-.075-2.325-.75-2.325-2.4zm13.725-11.325-.45-3.225h-4.35v21.225h5.1v-10.65c0-3.45 1.875-6 5.475-6 .525 0 1.2.075 1.725.225v-4.875c-.525-.075-1.05-.15-1.575-.15-2.4 0-4.95.975-5.925 3.45zm23.25 8.025c0 1.725-.375 3.675-1.575 4.725-.6.6-1.425 1.05-2.625 1.05-2.7 0-3.675-1.575-3.675-4.05v-12.975h-5.025v14.1c0 4.5 2.775 7.575 7.35 7.575 2.7 0 5.025-1.2 6.075-3.3l.375 2.775h4.2v-21.15h-5.1zm13.575 3.675v-23.175h-5.1v24c0 4.05 2.325 5.7 5.775 5.7 1.05 0 1.2-.075 2.25-.3v-4.275h-.9c-1.725.075-2.025-.75-2.025-1.95zm5.925-14.925h5.175v21.225h-5.175zm27.225 17.325c-.9 0-1.2-.375-1.2-1.35v-7.875c0-1.425-.075-2.925-.6-4.275-1.2-3.15-4.35-4.35-7.95-4.35-4.725 0-8.55 2.1-8.775 6.9h4.95c.15-1.95 1.5-3 3.825-3 2.925 0 3.6 1.35 3.6 3.3v1.275l-6.225.45c-4.05.3-7.125 2.625-7.125 6.6 0 3.45 2.625 6.6 7.65 6.6 3 0 5.475-1.5 6.45-3.15.15 1.575 1.425 3 3.6 3 1.2 0 1.65-.225 2.55-.525v-3.75c0 .075-.375.15-.75.15zm-6.075-4.575c0 3.15-2.25 4.875-5.4 4.875-1.575 0-3-1.05-3-2.625 0-1.725 1.5-2.625 3.075-2.775l5.4-.375zm-98.4-21c-4.65 0-7.65 3.15-7.65 7.875 0 3.9 2.55 7.275 3.975 12.375.825 2.925 1.275 6.525 1.5 9.15h4.275c.225-2.625.675-6.225 1.5-9.15 1.425-5.1 3.975-8.475 3.975-12.375.15-4.725-2.85-7.875-7.575-7.875zm.075 12.075c-1.95 0-3.525-1.575-3.525-3.525s1.575-3.525 3.525-3.525 3.525 1.575 3.525 3.525-1.575 3.525-3.525 3.525z" fill="#1f304c"/></svg>

<svg width="114" height="30" viewBox="0 0 114 30" fill="none" xmlns="http://www.w3.org/2000/svg">
<path d="M87.525 0C89.1 0 90.45 1.35 90.45 2.925C90.45 4.5 89.1 5.85 87.525 5.85C85.95 5.85 84.6 4.5 84.6 2.925C84.6 1.35 85.875 0 87.525 0ZM28.425 22.8V12.45H33.75V8.25H28.425V1.65L23.325 2.925V8.25H19.5V12.45H23.325V23.25C23.325 27.3 25.425 29.775 29.7 29.775C31.2 29.775 32.625 29.55 34.05 29.25V24.975C32.625 25.125 31.8 25.2 30.75 25.2C29.175 25.125 28.425 24.45 28.425 22.8ZM42.15 11.475L41.7 8.25H37.35V29.475H42.45V18.825C42.45 15.375 44.325 12.825 47.925 12.825C48.45 12.825 49.125 12.9 49.65 13.05V8.175C49.125 8.1 48.6 8.025 48.075 8.025C45.675 8.025 43.125 9 42.15 11.475ZM65.4 19.5C65.4 21.225 65.025 23.175 63.825 24.225C63.225 24.825 62.4 25.275 61.2 25.275C58.5 25.275 57.525 23.7 57.525 21.225V8.25H52.5V22.35C52.5 26.85 55.275 29.925 59.85 29.925C62.55 29.925 64.875 28.725 65.925 26.625L66.3 29.4H70.5V8.25H65.4V19.5ZM78.975 23.175V0H73.875V24C73.875 28.05 76.2 29.7 79.65 29.7C80.7 29.7 80.85 29.625 81.9 29.4V25.125H81C79.275 25.2 78.975 24.375 78.975 23.175ZM84.9 8.25H90.075V29.475H84.9V8.25ZM112.125 25.575C111.225 25.575 110.925 25.2 110.925 24.225V16.35C110.925 14.925 110.85 13.425 110.325 12.075C109.125 8.925 105.975 7.725 102.375 7.725C97.65 7.725 93.825 9.825 93.6 14.625H98.55C98.7 12.675 100.05 11.625 102.375 11.625C105.3 11.625 105.975 12.975 105.975 14.925V16.2L99.75 16.65C95.7 16.95 92.625 19.275 92.625 23.25C92.625 26.7 95.25 29.85 100.275 29.85C103.275 29.85 105.75 28.35 106.725 26.7C106.875 28.275 108.15 29.7 110.325 29.7C111.525 29.7 111.975 29.475 112.875 29.175V25.425C112.875 25.5 112.5 25.575 112.125 25.575ZM106.05 21C106.05 24.15 103.8 25.875 100.65 25.875C99.075 25.875 97.65 24.825 97.65 23.25C97.65 21.525 99.15 20.625 100.725 20.475L106.125 20.1L106.05 21ZM7.65 0C3 0 0 3.15 0 7.875C0 11.775 2.55 15.15 3.975 20.25C4.8 23.175 5.25 26.775 5.475 29.4H9.75C9.975 26.775 10.425 23.175 11.25 20.25C12.675 15.15 15.225 11.775 15.225 7.875C15.375 3.15 12.375 0 7.65 0ZM7.725 12.075C5.775 12.075 4.2 10.5 4.2 8.55C4.2 6.6 5.775 5.025 7.725 5.025C9.675 5.025 11.25 6.6 11.25 8.55C11.25 10.5 9.675 12.075 7.725 12.075Z" fill="#1F304C"/>
</svg>
